; generated by PrusaSlicer 2.5.0+win64 on 2022-09-28 at 21:55:21 UTC


;
;

;
;
; 

; external perimeters extrusion width = 0.45mm
; perimeters extrusion width = 0.45mm
; infill extrusion width = 0.45mm
; solid infill extrusion width = 0.45mm
; top infill extrusion width = 0.40mm
; first layer extrusion width = 0.42mm

M73 P0 R49
M201 X2500 Y2500 Z400 E5000 ; sets maximum accelerations, mm/sec^2
M203 X180 Y180 Z12 E80 ; sets maximum feedrates, mm / sec
M204 P1250 R1250 T2500 ; sets acceleration (P, T) and retract acceleration (R), mm/sec^2
M205 X8.00 Y8.00 Z2.00 E10.00 ; sets the jerk limits, mm/sec
M205 S0 T0 ; sets the minimum extruding and travel feed rate, mm/sec
M107
;TYPE:Custom
M862.3 P "MINI" ; printer model check
G90 ; use absolute coordinates
M83 ; extruder relative mode
M104 S170 ; set extruder temp for bed leveling
M140 S60 ; set bed temp
M109 R170 ; wait for bed leveling temp
M190 S60 ; wait for bed temp
M204 T1250 ; set travel acceleration
G28 ; home all without mesh bed level
G29 ; mesh bed leveling 
M204 T2500 ; restore travel acceleration
M104 S215 ; set extruder temp
G92 E0
G1 Y-2 X179 F2400
G1 Z3 F720
M109 S215 ; wait for extruder temp

; intro line
G1 X170 F1000
G1 Z0.2 F720
G1 X110 E8 F900
G1 X40 E10 F700
G92 E0

M221 S95 ; set flow
G21 ; set units to millimeters
G90 ; use absolute coordinates
M83 ; use relative distances for extrusion
M900 K0.2 ; Filament gcode LA 1.5
; ; Filament gcode LA 1.0
M107
;LAYER_CHANGE
;Z:0.2
;HEIGHT:0.2
;BEFORE_LAYER_CHANGE
G92 E0.0
;0.2


G1 E-3.2 F4200
M73 P0 R48
G1 Z.2 F720
;AFTER_LAYER_CHANGE
;0.2
G1 Z.4
G1 X45.88 Y68.767 F9000
G1 Z.2 F720
G1 E3.2 F2400
M204 P800
;TYPE:Skirt/Brim
;WIDTH:0.42
G1 F1200
G1 X46.82 Y68.573 E.03008
G1 X133.18 Y68.573 E2.70776
G1 X134.487 Y68.965 E.04278
G1 X135.363 Y70.01 E.04278
G1 X135.557 Y70.95 E.03008
G1 X135.557 Y109.05 E1.1946
G1 X135.165 Y110.357 E.04278
G1 X134.12 Y111.233 E.04278
G1 X133.18 Y111.427 E.03008
G1 X46.82 Y111.427 E2.70776
G1 X45.513 Y111.035 E.04278
G1 X44.637 Y109.99 E.04278
G1 X44.443 Y109.05 E.03008
G1 X44.443 Y70.95 E1.1946
G1 X44.835 Y69.643 E.04278
G1 X45.834 Y68.805 E.0409
M204 P1000
; printing object sampleholder1.stl id:0 copy 0
G1 E-2.24 F4200
;WIPE_START
G1 F7200
M73 P1 R48
G1 X46.82 Y68.573 E-.56121
G1 X47.453 Y68.573 E-.35079
;WIPE_END
G1 E-.048 F4200
G1 Z.4 F720
G1 X132.393 Y108.263 F9000
G1 Z.2 F720
G1 E3.2 F2400
M204 P800
;TYPE:Perimeter
;WIDTH:0.419999
G1 F1200
G1 X47.607 Y108.263 E2.6584
G1 X47.607 Y71.737 E1.14524
G1 X132.393 Y71.737 E2.6584
G1 X132.393 Y108.203 E1.14336
M204 P1000
G1 X132.77 Y108.64 F9000
M204 P800
;TYPE:External perimeter
G1 F1200
G1 X47.23 Y108.64 E2.68204
G1 X47.23 Y71.36 E1.16889
G1 X132.77 Y71.36 E2.68204
G1 X132.77 Y108.58 E1.16701
M204 P1000
G1 X132.374 Y108.585 F9000
G1 E-2.24 F4200
;WIPE_START
G1 F7200
G1 X131.124 Y108.581 E-.912
;WIPE_END
G1 E-.048 F4200
G1 Z.4 F720
G1 X126.655 Y88.02 F9000
G1 Z.2 F720
G1 E3.2 F2400
M204 P800
;TYPE:Perimeter
G1 F1200
G1 X127.255 Y87.687 E.02153
G1 X128.012 Y87.539 E.02416
G1 X128.776 Y87.632 E.02416
G1 X129.475 Y87.957 E.02416
G1 X130.039 Y88.482 E.02416
G1 X130.413 Y89.155 E.02416
G1 X130.568 Y90 E.02692
G1 X130.468 Y90.676 E.02144
G1 X130.143 Y91.375 E.02416
G1 X129.618 Y91.939 E.02416
G1 X128.945 Y92.313 E.02416
G1 X128.188 Y92.461 E.02416
G1 X127.424 Y92.368 E.02416
G1 X126.725 Y92.043 E.02416
G1 X126.161 Y91.518 E.02416
G1 X125.787 Y90.845 E.02416
G1 X125.639 Y90.089 E.02415
G1 X125.732 Y89.324 E.02416
G1 X126.057 Y88.625 E.02416
G1 X126.603 Y88.05 E.02487
M204 P1000
G1 X126.812 Y88.365 F9000
M204 P800
;TYPE:External perimeter
G1 F1200
G1 X126.849 Y88.328 E.00164
G1 X127.427 Y88.023 E.02049
G1 X128.071 Y87.912 E.02049
G1 X128.717 Y88.005 E.02049
G1 X129.304 Y88.293 E.02049
G1 X129.772 Y88.749 E.02049
G1 X130.077 Y89.327 E.02049
G1 X130.191 Y90 E.02141
G1 X130.095 Y90.617 E.01959
G1 X129.807 Y91.204 E.02049
G1 X129.351 Y91.672 E.02049
G1 X128.773 Y91.977 E.02049
G1 X128.129 Y92.088 E.02049
G1 X127.483 Y91.995 E.02049
G1 X126.896 Y91.707 E.02049
G1 X126.428 Y91.251 E.02049
G1 X126.123 Y90.673 E.02049
G1 X126.012 Y90.03 E.02049
G1 X126.105 Y89.383 E.02049
G1 X126.393 Y88.796 E.02049
G1 X126.77 Y88.408 E.01697
M204 P1000
G1 X126.795 Y88.316 F9000
G1 E-2.24 F4200
;WIPE_START
G1 F7200
G1 X126.849 Y88.328 E-.06216
G1 X127.427 Y88.023 E-.36213
G1 X128.071 Y87.912 E-.36213
G1 X128.295 Y87.944 E-.12558
;WIPE_END
G1 E-.048 F4200
G1 Z.4 F720
G1 X103.435 Y91.157 F9000
G1 Z.2 F720
G1 E3.2 F2400
M204 P800
;TYPE:Perimeter
G1 F1200
G1 X103.367 Y91.117 E.00249
G1 X103.067 Y90.778 E.0142
G1 X102.886 Y90.362 E.0142
G1 X102.843 Y89.912 E.0142
G1 X102.941 Y89.469 E.0142
G1 X103.171 Y89.079 E.0142
G1 X103.51 Y88.779 E.0142
G1 X103.925 Y88.599 E.0142
G1 X104.376 Y88.555 E.0142
G1 X104.818 Y88.653 E.0142
G1 X105.208 Y88.883 E.0142
G1 X105.508 Y89.222 E.0142
G1 X105.689 Y89.638 E.0142
G1 X105.732 Y90.088 E.0142
G1 X105.634 Y90.531 E.0142
G1 X105.404 Y90.921 E.0142
G1 X105.065 Y91.221 E.0142
G1 X104.65 Y91.402 E.0142
G1 X104.199 Y91.445 E.0142
G1 X103.757 Y91.347 E.0142
G1 X103.487 Y91.188 E.00983
M204 P1000
G1 X103.612 Y90.828 F9000
M204 P800
;TYPE:External perimeter
G1 F1200
G1 X103.403 Y90.607 E.00958
G1 X103.258 Y90.303 E.01052
G1 X103.215 Y89.971 E.01052
G1 X103.296 Y89.603 E.01179
G1 X103.437 Y89.346 E.00921
G1 X103.681 Y89.115 E.01052
G1 X103.984 Y88.971 E.01052
G1 X104.317 Y88.928 E.01053
G1 X104.647 Y88.989 E.01052
G1 X104.942 Y89.15 E.01052
G1 X105.172 Y89.394 E.01052
G1 X105.317 Y89.697 E.01052
G1 X105.36 Y90.029 E.01052
G1 X105.298 Y90.359 E.01052
G1 X105.138 Y90.654 E.01052
G1 X104.894 Y90.885 E.01053
G1 X104.591 Y91.029 E.01052
G1 X104.258 Y91.072 E.01052
G1 X103.928 Y91.011 E.01052
G1 X103.659 Y90.865 E.00959
M204 P1000
G1 X103.329 Y90.943 F9000
G1 E-2.24 F4200
;WIPE_START
G1 F7200
G1 X103.403 Y90.607 E-.20175
G1 X103.258 Y90.303 E-.18601
G1 X103.215 Y89.971 E-.18601
G1 X103.296 Y89.603 E-.20845
G1 X103.409 Y89.398 E-.12978
;WIPE_END
G1 E-.048 F4200
G1 Z.4 F720
G1 X105.657 Y100.677 F9000
G1 Z.2 F720
G1 E3.2 F2400
M204 P800
;TYPE:Perimeter
G1 F1200
G1 X105.689 Y100.75 E.00249
G1 X105.732 Y101.201 E.0142
G1 X105.634 Y101.643 E.0142
G1 X105.404 Y102.033 E.0142
G1 X105.065 Y102.333 E.0142
G1 X104.65 Y102.514 E.0142
G1 X104.199 Y102.557 E.0142
G1 X103.757 Y102.459 E.0142
G1 X103.367 Y102.229 E.0142
G1 X103.067 Y101.89 E.0142
G1 X102.886 Y101.475 E.0142
G1 X102.843 Y101.024 E.0142
G1 X102.941 Y100.582 E.0142
G1 X103.098 Y100.281 E.01062
G1 X103.389 Y99.975 E.01326
G1 X103.757 Y99.766 E.01328
G1 X104.238 Y99.663 E.01543
M73 P2 R48
G1 X104.741 Y99.733 E.0159
G1 X105.181 Y99.97 E.0157
G1 X105.508 Y100.335 E.01535
G1 X105.633 Y100.622 E.00983
M204 P1000
G1 X105.32 Y100.839 F9000
M204 P800
;TYPE:External perimeter
G1 F1200
G1 X105.36 Y101.142 E.00957
G1 X105.298 Y101.472 E.01052
G1 X105.138 Y101.767 E.01052
G1 X104.894 Y101.997 E.01052
G1 X104.591 Y102.142 E.01052
G1 X104.258 Y102.185 E.01052
G1 X103.928 Y102.123 E.01052
G1 X103.633 Y101.963 E.01052
G1 X103.403 Y101.719 E.01052
G1 X103.258 Y101.416 E.01052
G1 X103.227 Y101.009 E.01281
G1 X103.277 Y100.753 E.00816
G1 X103.413 Y100.488 E.00934
G1 X103.681 Y100.228 E.01173
G1 X103.984 Y100.083 E.01052
G1 X104.317 Y100.04 E.01052
G1 X104.647 Y100.102 E.01052
G1 X104.942 Y100.262 E.01052
G1 X105.172 Y100.506 E.01052
G1 X105.304 Y100.782 E.0096
M204 P1000
G1 X105.617 Y100.913 F9000
G1 E-2.24 F4200
;WIPE_START
G1 F7200
G1 X105.36 Y101.142 E-.20167
G1 X105.298 Y101.472 E-.18601
G1 X105.138 Y101.767 E-.18602
G1 X104.894 Y101.997 E-.18601
G1 X104.646 Y102.115 E-.1523
;WIPE_END
G1 E-.048 F4200
G1 Z.4 F720
G1 X91.958 Y79.878 F9000
G1 Z.2 F720
G1 E3.2 F2400
M204 P800
;TYPE:Perimeter
G1 F1200
G1 X94.325 Y80.642 E.078
G1 X95.259 Y81.213 E.03433
G1 X96.517 Y82.011 E.0467
G1 X98.299 Y83.883 E.08103
G1 X98.382 Y83.998 E.00445
G1 X99.559 Y86.139 E.07662
G1 X99.76 Y86.848 E.02312
G1 X100.219 Y88.638 E.05791
G1 X100.237 Y91.222 E.08103
G1 X100.118 Y91.756 E.01716
G1 X99.612 Y93.729 E.06388
G1 X99.559 Y93.861 E.00445
G1 X98.382 Y96.002 E.07662
G1 X96.626 Y97.898 E.08103
G1 X96.189 Y98.197 E.0166
G1 X94.454 Y99.298 E.06444
G1 X94.325 Y99.358 E.00445
G1 X92.001 Y100.113 E.07662
G1 X91.862 Y100.14 E.00445
G1 X89.423 Y100.293 E.07662
G1 X89.282 Y100.285 E.00445
G1 X86.882 Y99.827 E.07662
G1 X86.747 Y99.783 E.00445
G1 X84.536 Y98.742 E.07662
G1 X82.533 Y97.109 E.08103
G1 X81 Y95.029 E.08103
G1 X80.032 Y92.633 E.08103
G1 X79.932 Y91.983 E.0206
G1 X79.691 Y90.071 E.06043
G1 X79.997 Y87.505 E.08103
G1 X80.932 Y85.096 E.08103
G1 X81.518 Y84.259 E.03203
G1 X82.436 Y82.994 E.049
G1 X82.927 Y82.565 E.02043
G1 X84.421 Y81.33 E.06079
G1 X84.536 Y81.258 E.00426
G1 X86.747 Y80.217 E.07662
G1 X86.882 Y80.173 E.00445
G1 X89.282 Y79.715 E.07662
G1 X89.423 Y79.707 E.00445
G1 X91.899 Y79.867 E.07778
M204 P1000
G1 X91.901 Y80.25 F9000
M204 P800
;TYPE:External perimeter
G1 F1200
G1 X94.209 Y81 E.07609
G1 X96.315 Y82.33 E.07809
G1 X98.024 Y84.141 E.07809
G1 X99.229 Y86.321 E.07809
G1 X99.854 Y88.731 E.07809
G1 X99.86 Y89.429 E.02188
G1 X99.86 Y91.222 E.05621
G1 X99.246 Y93.635 E.07809
G1 X98.052 Y95.821 E.07809
G1 X97.534 Y96.381 E.02393
G1 X96.349 Y97.643 E.05426
G1 X94.252 Y98.98 E.07798
G1 X91.838 Y99.764 E.07956
G1 X89.353 Y99.914 E.07809
G1 X86.952 Y99.456 E.07662
G1 X84.696 Y98.401 E.07809
G1 X83.932 Y97.777 E.03094
G1 X82.774 Y96.818 E.04714
G1 X81.305 Y94.807 E.07809
G1 X80.383 Y92.494 E.07809
G1 X80.306 Y91.936 E.01765
G1 X80.065 Y90.024 E.06043
G1 X80.371 Y87.552 E.07809
G1 X81.282 Y85.234 E.07809
G1 X81.823 Y84.48 E.02908
G1 X82.741 Y83.216 E.049
G1 X84.658 Y81.623 E.07815
G1 X86.952 Y80.544 E.0795
G1 X89.355 Y80.085 E.0767
G1 X91.842 Y80.237 E.07813
M204 P1000
G1 X92.163 Y79.948 F9000
G1 E-2.24 F4200
;WIPE_START
G1 F7200
G1 X93.409 Y80.742 E-.912
;WIPE_END
G1 E-.048 F4200
G1 Z.4 F720
G1 X74.544 Y101.95 F9000
G1 Z.2 F720
G1 E3.2 F2400
M204 P800
;TYPE:Perimeter
G1 F1200
G1 X74.492 Y101.89 E.00249
G1 X74.311 Y101.475 E.0142
G1 X74.268 Y101.024 E.0142
G1 X74.366 Y100.582 E.0142
G1 X74.596 Y100.192 E.0142
G1 X74.935 Y99.892 E.0142
G1 X75.259 Y99.733 E.01133
G1 X75.762 Y99.663 E.0159
G1 X76.243 Y99.766 E.01543
G1 X76.633 Y99.996 E.0142
G1 X76.933 Y100.335 E.0142
G1 X77.114 Y100.75 E.0142
G1 X77.157 Y101.201 E.0142
G1 X77.059 Y101.643 E.0142
G1 X76.829 Y102.033 E.0142
G1 X76.49 Y102.333 E.0142
G1 X76.075 Y102.514 E.0142
G1 X75.624 Y102.557 E.0142
G1 X75.182 Y102.459 E.0142
G1 X74.792 Y102.229 E.0142
G1 X74.584 Y101.995 E.00983
M204 P1000
G1 X74.814 Y101.692 F9000
M204 P800
;TYPE:External perimeter
G1 F1200
G1 X74.683 Y101.416 E.00957
G1 X74.64 Y101.083 E.01052
G1 X74.702 Y100.753 E.01053
G1 X74.862 Y100.458 E.01052
G1 X75.106 Y100.228 E.01052
G1 X75.379 Y100.091 E.00957
G1 X75.742 Y100.04 E.01149
G1 X76.072 Y100.102 E.01052
G1 X76.367 Y100.262 E.01052
G1 X76.614 Y100.539 E.01163
G1 X76.742 Y100.809 E.00937
G1 X76.785 Y101.142 E.01052
G1 X76.723 Y101.472 E.01052
G1 X76.563 Y101.767 E.01052
G1 X76.319 Y101.997 E.01052
G1 X76.016 Y102.142 E.01052
G1 X75.683 Y102.185 E.01052
G1 X75.353 Y102.123 E.01052
G1 X75.058 Y101.963 E.01052
G1 X74.848 Y101.741 E.0096
M204 P1000
G1 X74.51 Y101.713 F9000
G1 E-2.24 F4200
;WIPE_START
G1 F7200
G1 X74.683 Y101.416 E-.20168
G1 X74.64 Y101.083 E-.18601
G1 X74.702 Y100.753 E-.18604
G1 X74.862 Y100.458 E-.18598
G1 X75.062 Y100.269 E-.15229
;WIPE_END
G1 E-.048 F4200
G1 Z.4 F720
G1 X75.277 Y88.63 F9000
G1 Z.2 F720
G1 E3.2 F2400
M204 P800
;TYPE:Perimeter
G1 F1200
G1 X75.35 Y88.598 E.0025
G1 X75.801 Y88.555 E.0142
G1 X76.243 Y88.653 E.0142
G1 X76.595 Y88.848 E.0126
G1 X76.933 Y89.222 E.01583
G1 X77.114 Y89.638 E.0142
G1 X77.157 Y90.088 E.0142
G1 X77.059 Y90.531 E.0142
G1 X76.829 Y90.921 E.0142
G1 X76.49 Y91.221 E.0142
G1 X76.075 Y91.402 E.0142
G1 X75.624 Y91.445 E.0142
G1 X75.182 Y91.347 E.0142
G1 X74.792 Y91.117 E.0142
G1 X74.492 Y90.778 E.0142
G1 X74.311 Y90.362 E.0142
G1 X74.268 Y89.912 E.0142
G1 X74.366 Y89.469 E.0142
G1 X74.596 Y89.079 E.0142
G1 X74.935 Y88.779 E.0142
G1 X75.222 Y88.654 E.00982
M204 P1000
G1 X75.493 Y88.96 F9000
M204 P800
;TYPE:External perimeter
G1 F1200
G1 X75.742 Y88.928 E.00788
G1 X76.072 Y88.989 E.01052
G1 X76.354 Y89.138 E.01
G1 X76.597 Y89.393 E.01107
G1 X76.742 Y89.697 E.01052
G1 X76.785 Y90.029 E.01052
G1 X76.723 Y90.359 E.01052
G1 X76.563 Y90.654 E.01052
G1 X76.319 Y90.885 E.01052
G1 X75.96 Y91.038 E.01225
G1 X75.683 Y91.072 E.00874
G1 X75.353 Y91.011 E.01052
G1 X75.058 Y90.85 E.01052
G1 X74.828 Y90.606 E.01053
G1 X74.683 Y90.303 E.01052
G1 X74.64 Y89.971 E.01052
G1 X74.702 Y89.64 E.01053
G1 X74.862 Y89.346 E.01052
G1 X75.106 Y89.115 E.01053
G1 X75.433 Y88.968 E.01125
M204 P1000
G1 X75.556 Y88.717 F9000
G1 E-2.24 F4200
;WIPE_START
G1 F7200
G1 X75.742 Y88.928 E-.17248
G1 X76.072 Y88.989 E-.186
G1 X76.354 Y89.138 E-.17666
G1 X76.597 Y89.393 E-.19562
G1 X76.738 Y89.689 E-.18124
;WIPE_END
G1 E-.048 F4200
G1 Z.4 F720
G1 X74.322 Y79.262 F9000
G1 Z.2 F720
G1 E3.2 F2400
M204 P800
;TYPE:Perimeter
G1 F1200
G1 X74.261 Y78.864 E.01263
G1 X74.366 Y78.357 E.01624
G1 X74.596 Y77.967 E.0142
G1 X74.935 Y77.667 E.0142
G1 X75.35 Y77.486 E.0142
G1 X75.801 Y77.443 E.0142
G1 X76.243 Y77.541 E.0142
G1 X76.633 Y77.771 E.0142
G1 X76.933 Y78.11 E.0142
G1 X77.114 Y78.525 E.0142
G1 X77.157 Y78.976 E.0142
G1 X77.059 Y79.418 E.0142
G1 X76.829 Y79.808 E.0142
G1 X76.49 Y80.108 E.0142
G1 X76.075 Y80.289 E.0142
G1 X75.624 Y80.332 E.0142
G1 X75.182 Y80.234 E.0142
G1 X74.935 Y80.108 E.00869
G1 X74.567 Y79.778 E.01551
G1 X74.331 Y79.322 E.0161
M204 P1000
G1 X74.695 Y79.216 F9000
M204 P800
;TYPE:External perimeter
G1 F1200
G1 X74.64 Y78.858 E.01136
G1 X74.702 Y78.528 E.01052
G1 X74.862 Y78.233 E.01052
G1 X75.106 Y78.003 E.01052
G1 X75.409 Y77.858 E.01052
G1 X75.742 Y77.815 E.01052
G1 X76.072 Y77.877 E.01052
G1 X76.367 Y78.037 E.01052
G1 X76.597 Y78.281 E.01052
G1 X76.75 Y78.636 E.01213
G1 X76.785 Y78.917 E.00887
G1 X76.723 Y79.247 E.01052
G1 X76.563 Y79.542 E.01052
G1 X76.319 Y79.772 E.01052
G1 X75.96 Y79.925 E.01225
G1 X75.683 Y79.96 E.00874
G1 X75.353 Y79.898 E.01053
G1 X75.106 Y79.772 E.00869
G1 X74.828 Y79.494 E.01235
G1 X74.721 Y79.27 E.00777
M204 P1000
G1 X74.341 Y79.141 F9000
G1 E-2.24 F4200
;WIPE_START
G1 F7200
G1 X74.64 Y78.858 E-.23278
G1 X74.702 Y78.528 E-.18601
G1 X74.862 Y78.233 E-.18601
G1 X75.106 Y78.003 E-.18601
G1 X75.304 Y77.909 E-.12119
;WIPE_END
G1 E-.048 F4200
G1 Z.4 F720
G1 X53.336 Y88.014 F9000
G1 Z.2 F720
G1 E3.2 F2400
M204 P800
;TYPE:Perimeter
G1 F1200
G1 X53.839 Y88.482 E.02153
G1 X54.213 Y89.155 E.02416
G1 X54.361 Y89.911 E.02415
G1 X54.268 Y90.676 E.02416
G1 X53.943 Y91.375 E.02416
G1 X53.418 Y91.939 E.02416
G1 X52.745 Y92.313 E.02416
G1 X51.988 Y92.461 E.02416
G1 X51.224 Y92.368 E.02416
G1 X51.055 Y92.313 E.00555
G1 X50.525 Y92.043 E.01866
G1 X49.961 Y91.518 E.02416
G1 X49.587 Y90.845 E.02416
G1 X49.439 Y90.088 E.02416
G1 X49.532 Y89.324 E.02416
G1 X49.857 Y88.625 E.02416
G1 X50.382 Y88.061 E.02416
G1 X51.055 Y87.687 E.02416
G1 X51.812 Y87.539 E.02416
G1 X52.576 Y87.632 E.02416
G1 X53.292 Y87.973 E.02487
M204 P1000
G1 X53.055 Y88.269 F9000
M204 P800
;TYPE:External perimeter
G1 F1200
G1 X53.104 Y88.293 E.00169
G1 X53.572 Y88.749 E.02049
G1 X53.877 Y89.327 E.02049
G1 X53.988 Y89.97 E.02049
G1 X53.895 Y90.617 E.02049
G1 X53.607 Y91.204 E.02049
G1 X53.151 Y91.672 E.02049
G1 X52.573 Y91.977 E.02049
G1 X51.929 Y92.088 E.02049
G1 X51.283 Y91.995 E.02049
G1 X50.696 Y91.707 E.02049
G1 X50.228 Y91.251 E.02049
G1 X49.923 Y90.673 E.02049
G1 X49.812 Y90.029 E.02049
G1 X49.905 Y89.383 E.02049
G1 X50.193 Y88.796 E.02049
G1 X50.649 Y88.328 E.02049
G1 X51.227 Y88.023 E.02049
G1 X51.871 Y87.912 E.02049
G1 X52.517 Y88.005 E.02049
G1 X53.002 Y88.243 E.01692
M204 P1000
G1 X53.098 Y88.237 F9000
G1 E-2.24 F4200
;WIPE_START
G1 F7200
G1 X53.104 Y88.293 E-.0631
G1 X53.572 Y88.749 E-.36213
G1 X53.877 Y89.327 E-.36213
G1 X53.915 Y89.548 E-.12464
;WIPE_END
G1 E-.048 F4200
G1 Z.4 F720
G1 X103.85 Y77.519 F9000
G1 Z.2 F720
G1 E3.2 F2400
M204 P800
;TYPE:Perimeter
G1 F1200
G1 X103.925 Y77.486 E.00258
G1 X104.199 Y77.443 E.00869
G1 X104.65 Y77.486 E.0142
G1 X105.143 Y77.714 E.01703
