; generated by PrusaSlicer 2.5.0+win64 on 2022-09-30 at 03:24:19 UTC


;
;

;
;
; 

; external perimeters extrusion width = 0.45mm
; perimeters extrusion width = 0.45mm
; infill extrusion width = 0.45mm
; solid infill extrusion width = 0.45mm
; top infill extrusion width = 0.40mm
; first layer extrusion width = 0.42mm

M73 P0 R46
M201 X2500 Y2500 Z400 E5000 ; sets maximum accelerations, mm/sec^2
M203 X180 Y180 Z12 E80 ; sets maximum feedrates, mm / sec
M204 P1250 R1250 T2500 ; sets acceleration (P, T) and retract acceleration (R), mm/sec^2
M205 X8.00 Y8.00 Z2.00 E10.00 ; sets the jerk limits, mm/sec
M205 S0 T0 ; sets the minimum extruding and travel feed rate, mm/sec
M107
;TYPE:Custom
M862.3 P "MINI" ; printer model check
G90 ; use absolute coordinates
M83 ; extruder relative mode
M104 S170 ; set extruder temp for bed leveling
M140 S60 ; set bed temp
M109 R170 ; wait for bed leveling temp
M190 S60 ; wait for bed temp
M204 T1250 ; set travel acceleration
G28 ; home all without mesh bed level
G29 ; mesh bed leveling 
M204 T2500 ; restore travel acceleration
M104 S215 ; set extruder temp
G92 E0
G1 Y-2 X179 F2400
G1 Z3 F720
M109 S215 ; wait for extruder temp

; intro line
G1 X170 F1000
G1 Z0.2 F720
G1 X110 E8 F900
G1 X40 E10 F700
G92 E0

M221 S95 ; set flow
G21 ; set units to millimeters
G90 ; use absolute coordinates
M83 ; use relative distances for extrusion
M900 K0.2 ; Filament gcode LA 1.5
; ; Filament gcode LA 1.0
M107
;LAYER_CHANGE
;Z:0.2
;HEIGHT:0.2
;BEFORE_LAYER_CHANGE
G92 E0.0
;0.2


M73 P0 R45
G1 E-3.2 F4200
G1 Z.2 F720
;AFTER_LAYER_CHANGE
;0.2
G1 Z.4
G1 X45.88 Y68.767 F9000
G1 Z.2 F720
G1 E3.2 F2400
M204 P800
;TYPE:Skirt/Brim
;WIDTH:0.42
G1 F1200
G1 X46.82 Y68.573 E.03008
G1 X133.18 Y68.573 E2.70776
G1 X134.487 Y68.965 E.04278
G1 X135.363 Y70.01 E.04278
G1 X135.557 Y70.95 E.03008
G1 X135.557 Y109.05 E1.1946
G1 X135.165 Y110.357 E.04278
G1 X134.12 Y111.233 E.04278
G1 X133.18 Y111.427 E.03008
G1 X46.82 Y111.427 E2.70776
G1 X45.513 Y111.035 E.04278
G1 X44.637 Y109.99 E.04278
G1 X44.443 Y109.05 E.03008
G1 X44.443 Y70.95 E1.1946
G1 X44.835 Y69.643 E.04278
M73 P1 R45
G1 X45.834 Y68.805 E.0409
M204 P1000
; printing object newsizemge1.stl id:0 copy 0
G1 E-2.24 F4200
;WIPE_START
G1 F7200
G1 X46.82 Y68.573 E-.56121
G1 X47.453 Y68.573 E-.35079
;WIPE_END
G1 E-.048 F4200
G1 Z.4 F720
G1 X132.393 Y108.263 F9000
G1 Z.2 F720
G1 E3.2 F2400
M204 P800
;TYPE:Perimeter
;WIDTH:0.419999
G1 F1200
G1 X47.607 Y108.263 E2.6584
G1 X47.607 Y71.737 E1.14524
G1 X132.393 Y71.737 E2.6584
G1 X132.393 Y108.203 E1.14336
M204 P1000
G1 X132.77 Y108.64 F9000
M204 P800
;TYPE:External perimeter
G1 F1200
G1 X47.23 Y108.64 E2.68204
G1 X47.23 Y71.36 E1.16889
G1 X132.77 Y71.36 E2.68204
G1 X132.77 Y108.58 E1.16701
M204 P1000
G1 X132.374 Y108.585 F9000
G1 E-2.24 F4200
;WIPE_START
G1 F7200
G1 X131.124 Y108.581 E-.912
;WIPE_END
G1 E-.048 F4200
G1 Z.4 F720
G1 X126.671 Y88.04 F9000
G1 Z.2 F720
G1 E3.2 F2400
M204 P800
;TYPE:Perimeter
M73 P2 R45
G1 F1200
G1 X127.263 Y87.711 E.02126
G1 X128.012 Y87.564 E.02391
G1 X128.769 Y87.656 E.02391
G1 X129.46 Y87.977 E.02391
G1 X130.019 Y88.497 E.02391
G1 X130.389 Y89.163 E.02391
G1 X130.536 Y89.912 E.02391
G1 X130.444 Y90.669 E.02391
G1 X130.123 Y91.36 E.02391
G1 X129.603 Y91.919 E.02391
G1 X128.937 Y92.289 E.02391
G1 X128.188 Y92.436 E.02391
G1 X127.431 Y92.344 E.02391
G1 X126.74 Y92.023 E.02391
G1 X126.181 Y91.503 E.02391
G1 X125.811 Y90.837 E.02391
G1 X125.683 Y90.205 E.02022
G1 X125.664 Y89.912 E.00922
G1 X125.756 Y89.331 E.01842
G1 X126.077 Y88.64 E.02391
G1 X126.618 Y88.069 E.02464
M204 P1000
G1 X126.83 Y88.382 F9000
M204 P800
;TYPE:External perimeter
G1 F1200
G1 X126.863 Y88.348 E.0015
G1 X127.434 Y88.047 E.02024
G1 X128.071 Y87.937 E.02024
G1 X128.71 Y88.028 E.02024
G1 X129.289 Y88.313 E.02024
G1 X129.752 Y88.763 E.02024
G1 X130.053 Y89.334 E.02024
G1 X130.163 Y89.971 E.02024
G1 X130.072 Y90.61 E.02024
G1 X129.787 Y91.189 E.02024
G1 X129.337 Y91.652 E.02024
G1 X128.766 Y91.953 E.02024
G1 X128.129 Y92.063 E.02024
G1 X127.49 Y91.972 E.02024
G1 X126.911 Y91.687 E.02024
G1 X126.448 Y91.237 E.02024
G1 X126.147 Y90.666 E.02024
G1 X126.055 Y90.146 E.01655
G1 X126.058 Y89.834 E.00979
G1 X126.145 Y89.338 E.01576
G1 X126.413 Y88.811 E.01856
G1 X126.788 Y88.425 E.01687
M204 P1000
G1 X126.815 Y88.337 F9000
G1 E-2.24 F4200
;WIPE_START
G1 F7200
G1 X126.863 Y88.348 E-.05971
G1 X127.434 Y88.047 E-.3578
G1 X128.071 Y87.937 E-.3578
G1 X128.315 Y87.972 E-.13669
;WIPE_END
G1 E-.048 F4200
G1 Z.4 F720
G1 X104.72 Y88.561 F9000
G1 Z.2 F720
G1 E3.2 F2400
M204 P800
;TYPE:Perimeter
G1 F1200
G1 X104.798 Y88.579 E.0025
G1 X105.17 Y88.799 E.01355
G1 X105.455 Y89.124 E.01356
G1 X105.626 Y89.521 E.01356
G1 X105.671 Y89.916 E.01246
G1 X105.572 Y90.373 E.01468
G1 X105.351 Y90.745 E.01356
G1 X105.026 Y91.031 E.01355
G1 X104.629 Y91.202 E.01355
G1 X104.199 Y91.242 E.01356
G1 X103.777 Y91.147 E.01355
G1 X103.405 Y90.927 E.01355
G1 X103.12 Y90.602 E.01356
G1 X102.949 Y90.205 E.01355
G1 X102.909 Y89.774 E.01356
G1 X103.003 Y89.353 E.01356
G1 X103.224 Y88.981 E.01356
G1 X103.549 Y88.695 E.01356
G1 X103.946 Y88.524 E.01355
G1 X104.376 Y88.484 E.01356
G1 X104.662 Y88.548 E.00918
M204 P1000
G1 X104.607 Y88.911 F9000
M204 P800
;TYPE:External perimeter
G1 F1200
G1 X104.903 Y89.066 E.01046
G1 X105.119 Y89.295 E.00988
G1 X105.254 Y89.58 E.00988
G1 X105.296 Y89.881 E.00952
G1 X105.236 Y90.202 E.01025
G1 X105.084 Y90.479 E.00988
G1 X104.855 Y90.695 E.00988
G1 X104.57 Y90.829 E.00988
G1 X104.258 Y90.87 E.00988
G1 X103.948 Y90.811 E.00988
G1 X103.672 Y90.66 E.00988
G1 X103.456 Y90.431 E.00988
G1 X103.321 Y90.146 E.00988
G1 X103.281 Y89.833 E.00988
G1 X103.339 Y89.524 E.00988
G1 X103.491 Y89.247 E.00988
G1 X103.72 Y89.031 E.00988
G1 X104.005 Y88.897 E.00988
G1 X104.317 Y88.856 E.00988
G1 X104.549 Y88.9 E.00739
M204 P1000
G1 X104.859 Y88.692 F9000
G1 E-2.24 F4200
;WIPE_START
G1 F7200
G1 X104.903 Y89.066 E-.21688
G1 X105.119 Y89.295 E-.1746
G1 X105.254 Y89.58 E-.1746
G1 X105.296 Y89.881 E-.16819
G1 X105.237 Y90.196 E-.17774
;WIPE_END
G1 E-.048 F4200
G1 Z.4 F720
G1 X83.032 Y87.416 F9000
G1 Z.2 F720
G1 E3.2 F2400
M204 P800
;TYPE:Perimeter
G1 F1200
G1 X83.422 Y86.595 E.02852
G1 X83.931 Y85.597 E.03513
G1 X84.478 Y85.01 E.02517
G1 X85.412 Y84.076 E.04139
G1 X86.211 Y83.638 E.02859
G1 X87.29 Y83.088 E.03797
G1 X87.459 Y83.034 E.00555
G1 X89.382 Y82.729 E.06107
G1 X89.559 Y82.729 E.00555
G1 X91.483 Y83.034 E.06107
G1 X91.651 Y83.088 E.00555
G1 X93.386 Y83.972 E.06107
G1 X94.128 Y84.675 E.03204
G1 X94.907 Y85.454 E.03452
G1 X95.128 Y85.828 E.01363
G1 X95.895 Y87.332 E.05294
G1 X96.029 Y88.001 E.02139
G1 X96.254 Y89.424 E.04518
G1 X96.256 Y89.587 E.00511
G1 X95.95 Y91.525 E.0615
G1 X95.66 Y92.153 E.0217
G1 X95.011 Y93.428 E.04486
G1 X94.502 Y93.976 E.02342
G1 X93.53 Y94.949 E.04314
G1 X92.934 Y95.283 E.02143
G1 X91.651 Y95.937 E.04513
G1 X91.483 Y95.991 E.00555
G1 X89.559 Y96.296 E.06107
G1 X89.382 Y96.296 E.00555
G1 X87.459 Y95.991 E.06107
G1 X86.758 Y95.665 E.02424
G1 X85.555 Y95.053 E.04232
G1 X85.066 Y94.603 E.02084
G1 X84.035 Y93.571 E.04573
G1 X83.753 Y93.079 E.0178
G1 X83.046 Y91.693 E.04877
G1 X82.959 Y91.318 E.01209
G1 X82.687 Y89.601 E.05449
G1 X82.687 Y89.424 E.00555
G1 X83.006 Y87.471 E.06206
M204 P1000
G1 X83.361 Y87.578 F9000
M204 P800
;TYPE:External perimeter
G1 F1200
G1 X84.267 Y85.768 E.06344
G1 X85.678 Y84.343 E.06289
G1 X86.382 Y83.974 E.02492
G1 X87.518 Y83.406 E.0398
G1 X89.441 Y83.101 E.06107
G1 X91.424 Y83.406 E.06289
G1 X93.218 Y84.31 E.06298
G1 X94.64 Y85.72 E.06281
G1 X94.792 Y85.999 E.00996
G1 X95.559 Y87.503 E.05294
G1 X95.882 Y89.483 E.06289
G1 X95.577 Y91.466 E.06289
G1 X94.675 Y93.257 E.06289
G1 X93.263 Y94.682 E.06289
G1 X92.762 Y94.947 E.01776
G1 X91.424 Y95.619 E.04696
G1 X89.5 Y95.924 E.06107
G1 X87.518 Y95.619 E.06289
G1 X85.726 Y94.717 E.06289
G1 X84.301 Y93.305 E.06289
G1 X83.382 Y91.522 E.06289
G1 X83.331 Y91.259 E.00841
G1 X83.059 Y89.539 E.0546
G1 X83.352 Y87.637 E.06033
M204 P1000
G1 X83.093 Y87.281 F9000
G1 E-2.24 F4200
;WIPE_START
G1 F7200
G1 X84.075 Y86.159 E-.912
;WIPE_END
G1 E-.048 F4200
G1 Z.4 F720
G1 X105.086 Y79.866 F9000
G1 Z.2 F720
G1 E3.2 F2400
M204 P800
;TYPE:Perimeter
G1 F1200
G1 X105.026 Y79.918 E.0025
G1 X104.629 Y80.089 E.01355
G1 X104.199 Y80.129 E.01356
G1 X103.777 Y80.035 E.01356
G1 X103.405 Y79.814 E.01355
G1 X103.119 Y79.487 E.01363
G1 X102.949 Y79.092 E.01348
G1 X102.902 Y78.77 E.01021
G1 X102.968 Y78.327 E.01405
G1 X103.164 Y77.939 E.01364
G1 X103.471 Y77.631 E.01364
G1 X103.936 Y77.413 E.0161
G1 X104.376 Y77.371 E.01385
G1 X104.798 Y77.466 E.01356
G1 X105.17 Y77.687 E.01356
G1 X105.455 Y78.012 E.01356
G1 X105.626 Y78.409 E.01356
G1 X105.666 Y78.839 E.01355
G1 X105.572 Y79.261 E.01356
G1 X105.351 Y79.633 E.01356
G1 X105.131 Y79.826 E.00918
M204 P1000
G1 X104.834 Y79.592 F9000
M204 P800
;TYPE:External perimeter
G1 F1200
G1 X104.57 Y79.717 E.00916
G1 X104.258 Y79.757 E.00988
G1 X103.948 Y79.699 E.00988
G1 X103.672 Y79.547 E.00988
G1 X103.455 Y79.316 E.00995
G1 X103.321 Y79.033 E.0098
G1 X103.279 Y78.757 E.00877
G1 X103.339 Y78.411 E.011
G1 X103.491 Y78.135 E.00988
G1 X103.72 Y77.919 E.00988
G1 X104.005 Y77.784 E.00988
G1 X104.317 Y77.744 E.00988
G1 X104.627 Y77.802 E.00988
G1 X104.903 Y77.954 E.00988
G1 X105.119 Y78.183 E.00988
G1 X105.254 Y78.467 E.00988
G1 X105.294 Y78.78 E.00988
G1 X105.236 Y79.09 E.00988
G1 X105.084 Y79.366 E.00988
G1 X104.882 Y79.557 E.00872
M204 P1000
G1 X104.855 Y79.883 F9000
G1 E-2.24 F4200
;WIPE_START
G1 F7200
G1 X104.57 Y79.717 E-.19417
G1 X104.258 Y79.757 E-.17459
G1 X103.948 Y79.699 E-.17462
G1 X103.672 Y79.547 E-.17456
G1 X103.455 Y79.316 E-.17594
G1 X103.441 Y79.286 E-.01811
;WIPE_END
G1 E-.048 F4200
G1 Z.4 F720
G1 X105.402 Y100.177 F9000
G1 Z.2 F720
G1 E3.2 F2400
M204 P800
;TYPE:Perimeter
G1 F1200
G1 X105.455 Y100.237 E.0025
G1 X105.626 Y100.634 E.01355
G1 X105.666 Y101.064 E.01355
G1 X105.572 Y101.486 E.01356
G1 X105.351 Y101.858 E.01356
G1 X105.026 Y102.143 E.01356
G1 X104.629 Y102.314 E.01356
G1 X104.199 Y102.354 E.01356
G1 X103.777 Y102.26 E.01356
G1 X103.405 Y102.039 E.01355
G1 X103.12 Y101.714 E.01356
G1 X102.949 Y101.317 E.01356
G1 X102.909 Y100.887 E.01356
G1 X103.003 Y100.465 E.01356
G1 X103.154 Y100.179 E.01014
G1 X103.506 Y99.832 E.0155
G1 X103.946 Y99.637 E.01509
G1 X104.376 Y99.596 E.01355
G1 X104.798 Y99.691 E.01356
G1 X105.17 Y99.912 E.01356
G1 X105.363 Y100.132 E.00917
M204 P1000
G1 X105.107 Y100.395 F9000
M204 P800
;TYPE:External perimeter
G1 F1200
G1 X105.254 Y100.692 E.01041
G1 X105.294 Y101.005 E.00988
G1 X105.236 Y101.315 E.00988
G1 X105.084 Y101.591 E.00988
G1 X104.855 Y101.807 E.00988
G1 X104.57 Y101.942 E.00988
G1 X104.258 Y101.982 E.00988
G1 X103.948 Y101.924 E.00988
G1 X103.672 Y101.772 E.00988
G1 X103.456 Y101.543 E.00988
G1 X103.321 Y101.258 E.00988
G1 X103.281 Y100.946 E.00988
G1 X103.339 Y100.636 E.00988
G1 X103.467 Y100.389 E.00874
G1 X103.72 Y100.144 E.01103
G1 X104.005 Y100.009 E.00988
G1 X104.317 Y99.969 E.00988
G1 X104.627 Y100.027 E.00988
G1 X104.903 Y100.179 E.00988
G1 X105.066 Y100.351 E.00744
M204 P1000
G1 X105.438 Y100.366 F9000
G1 E-2.24 F4200
;WIPE_START
G1 F7200
G1 X105.254 Y100.692 E-.21598
G1 X105.294 Y101.005 E-.17459
G1 X105.236 Y101.315 E-.17459
G1 X105.084 Y101.591 E-.1746
G1 X104.858 Y101.804 E-.17224
;WIPE_END
G1 E-.048 F4200
G1 Z.4 F720
G1 X75.28 Y102.277 F9000
G1 Z.2 F720
G1 E3.2 F2400
M204 P800
;TYPE:Perimeter
G1 F1200
G1 X75.202 Y102.26 E.0025
G1 X74.83 Y102.039 E.01356
G1 X74.545 Y101.714 E.01356
G1 X74.374 Y101.317 E.01356
G1 X74.334 Y100.887 E.01356
G1 X74.428 Y100.465 E.01356
G1 X74.58 Y100.177 E.01021
G1 X74.928 Y99.834 E.01532
G1 X75.371 Y99.637 E.01519
G1 X75.801 Y99.596 E.01355
G1 X76.223 Y99.691 E.01356
G1 X76.595 Y99.912 E.01355
G1 X76.88 Y100.237 E.01356
G1 X77.051 Y100.633 E.01356
G1 X77.091 Y101.064 E.01356
G1 X76.997 Y101.486 E.01355
G1 X76.776 Y101.858 E.01356
G1 X76.451 Y102.143 E.01356
G1 X76.054 Y102.314 E.01356
G1 X75.624 Y102.354 E.01356
G1 X75.339 Y102.29 E.00917
M204 P1000
G1 X75.353 Y101.913 F9000
M204 P800
;TYPE:External perimeter
G1 F1200
G1 X75.097 Y101.772 E.00916
G1 X74.881 Y101.543 E.00988
G1 X74.746 Y101.258 E.00988
G1 X74.706 Y100.946 E.00988
G1 X74.764 Y100.636 E.00988
G1 X74.893 Y100.388 E.00876
G1 X75.145 Y100.144 E.011
G1 X75.43 Y100.009 E.00988
G1 X75.742 Y99.969 E.00988
G1 X76.052 Y100.027 E.00988
G1 X76.328 Y100.178 E.00988
G1 X76.544 Y100.408 E.00988
G1 X76.679 Y100.692 E.00988
G1 X76.719 Y101.005 E.00988
G1 X76.661 Y101.315 E.00988
G1 X76.509 Y101.591 E.00988
G1 X76.28 Y101.807 E.00988
G1 X75.995 Y101.942 E.00988
G1 X75.683 Y101.982 E.00988
G1 X75.41 Y101.931 E.00872
M204 P1000
G1 X75.13 Y102.1 F9000
G1 E-2.24 F4200
;WIPE_START
G1 F7200
G1 X75.097 Y101.772 E-.19423
G1 X74.881 Y101.543 E-.17459
G1 X74.746 Y101.258 E-.17459
G1 X74.706 Y100.946 E-.1746
G1 X74.764 Y100.636 E-.17469
G1 X74.78 Y100.605 E-.0193
;WIPE_END
G1 E-.048 F4200
G1 Z.4 F720
G1 X76.145 Y88.561 F9000
G1 Z.2 F720
G1 E3.2 F2400
M204 P800
;TYPE:Perimeter
G1 F1200
G1 X76.223 Y88.579 E.0025
G1 X76.595 Y88.799 E.01355
G1 X76.88 Y89.124 E.01356
G1 X77.051 Y89.521 E.01356
G1 X77.091 Y89.951 E.01356
G1 X76.997 Y90.373 E.01355
G1 X76.776 Y90.745 E.01356
G1 X76.451 Y91.031 E.01356
G1 X76.054 Y91.202 E.01356
G1 X75.624 Y91.242 E.01356
G1 X75.202 Y91.147 E.01355
G1 X74.83 Y90.927 E.01356
G1 X74.58 Y90.662 E.01143
G1 X74.374 Y90.205 E.01571
G1 X74.334 Y89.774 E.01356
G1 X74.428 Y89.353 E.01356
G1 X74.649 Y88.981 E.01356
G1 X74.974 Y88.695 E.01355
G1 X75.371 Y88.524 E.01356
G1 X75.801 Y88.484 E.01356
G1 X76.087 Y88.548 E.00918
M204 P1000
G1 X76.073 Y88.927 F9000
M204 P800
;TYPE:External perimeter
G1 F1200
G1 X76.328 Y89.066 E.0091
G1 X76.544 Y89.295 E.00988
G1 X76.679 Y89.58 E.00988
G1 X76.719 Y89.892 E.00988
G1 X76.661 Y90.202 E.00988
G1 X76.509 Y90.478 E.00988
G1 X76.28 Y90.695 E.00988
G1 X75.995 Y90.829 E.00988
G1 X75.683 Y90.87 E.00988
G1 X75.373 Y90.811 E.00988
G1 X75.097 Y90.66 E.00988
G1 X74.893 Y90.451 E.00917
G1 X74.746 Y90.146 E.0106
G1 X74.706 Y89.833 E.00988
G1 X74.764 Y89.524 E.00988
G1 X74.916 Y89.247 E.00988
G1 X75.145 Y89.031 E.00988
G1 X75.43 Y88.897 E.00988
G1 X75.742 Y88.856 E.00988
G1 X76.017 Y88.908 E.00878
M204 P1000
G1 X76.296 Y88.74 F9000
G1 E-2.24 F4200
;WIPE_START
G1 F7200
G1 X76.328 Y89.066 E-.19317
G1 X76.544 Y89.295 E-.17459
G1 X76.679 Y89.58 E-.17459
G1 X76.719 Y89.892 E-.1746
G1 X76.661 Y90.202 E-.17459
G1 X76.643 Y90.234 E-.02046
;WIPE_END
G1 E-.048 F4200
G1 Z.4 F720
G1 X76.128 Y80.058 F9000
G1 Z.2 F720
G1 E3.2 F2400
M204 P800
;TYPE:Perimeter
G1 F1200
G1 X76.054 Y80.089 E.0025
G1 X75.624 Y80.129 E.01356
G1 X75.202 Y80.035 E.01356
G1 X74.83 Y79.814 E.01356
G1 X74.545 Y79.489 E.01355
G1 X74.374 Y79.092 E.01356
G1 X74.328 Y78.786 E.00971
G1 X74.393 Y78.327 E.01454
G1 X74.589 Y77.939 E.01364
G1 X74.896 Y77.631 E.01364
G1 X75.361 Y77.413 E.0161
G1 X75.801 Y77.371 E.01385
G1 X76.223 Y77.466 E.01356
G1 X76.595 Y77.687 E.01355
G1 X76.88 Y78.012 E.01356
G1 X77.051 Y78.408 E.01356
G1 X77.091 Y78.839 E.01356
G1 X76.997 Y79.261 E.01355
G1 X76.776 Y79.633 E.01356
G1 X76.451 Y79.918 E.01356
G1 X76.183 Y80.034 E.00917
M204 P1000
G1 X75.975 Y79.72 F9000
M204 P800
;TYPE:External perimeter
G1 F1200
G1 X75.683 Y79.757 E.00923
G1 X75.373 Y79.699 E.00988
G1 X75.097 Y79.547 E.00988
G1 X74.881 Y79.318 E.00988
G1 X74.746 Y79.033 E.00988
G1 X74.704 Y78.762 E.0086
G1 X74.764 Y78.411 E.01117
G1 X74.916 Y78.135 E.00988
G1 X75.145 Y77.919 E.00988
G1 X75.43 Y77.784 E.00988
G1 X75.742 Y77.744 E.00988
G1 X76.052 Y77.802 E.00988
G1 X76.328 Y77.953 E.00988
G1 X76.544 Y78.183 E.00988
G1 X76.679 Y78.467 E.00988
G1 X76.719 Y78.78 E.00988
G1 X76.661 Y79.09 E.00988
G1 X76.509 Y79.366 E.00988
G1 X76.28 Y79.582 E.00988
G1 X76.031 Y79.7 E.00864
M204 P1000
G1 X75.904 Y80.005 F9000
G1 E-2.24 F4200
;WIPE_START
G1 F7200
M73 P2 R44
G1 X75.683 Y79.757 E-.19547
G1 X75.373 Y79.699 E-.1746
G1 X75.097 Y79.547 E-.17461
G1 X74.881 Y79.318 E-.17456
G1 X74.746 Y79.033 E-.17459
G1 X74.741 Y79.001 E-.01816
;WIPE_END
G1 E-.048 F4200
G1 Z.4 F720
G1 X51.155 Y92.308 F9000
G1 Z.2 F720
G1 E3.2 F2400
M204 P800
;TYPE:Perimeter
G1 F1200
