; generated by PrusaSlicer 2.5.0+win64 on 2022-09-30 at 03:21:44 UTC


;
;

;
;
; 

; external perimeters extrusion width = 0.45mm
; perimeters extrusion width = 0.45mm
; infill extrusion width = 0.45mm
; solid infill extrusion width = 0.45mm
; top infill extrusion width = 0.40mm
; first layer extrusion width = 0.42mm

M73 P0 R48
M201 X2500 Y2500 Z400 E5000 ; sets maximum accelerations, mm/sec^2
M203 X180 Y180 Z12 E80 ; sets maximum feedrates, mm / sec
M204 P1250 R1250 T2500 ; sets acceleration (P, T) and retract acceleration (R), mm/sec^2
M205 X8.00 Y8.00 Z2.00 E10.00 ; sets the jerk limits, mm/sec
M205 S0 T0 ; sets the minimum extruding and travel feed rate, mm/sec
M107
;TYPE:Custom
M862.3 P "MINI" ; printer model check
G90 ; use absolute coordinates
M83 ; extruder relative mode
M104 S170 ; set extruder temp for bed leveling
M140 S60 ; set bed temp
M109 R170 ; wait for bed leveling temp
M190 S60 ; wait for bed temp
M204 T1250 ; set travel acceleration
G28 ; home all without mesh bed level
G29 ; mesh bed leveling 
M204 T2500 ; restore travel acceleration
M104 S215 ; set extruder temp
G92 E0
G1 Y-2 X179 F2400
G1 Z3 F720
M109 S215 ; wait for extruder temp

; intro line
G1 X170 F1000
G1 Z0.2 F720
G1 X110 E8 F900
G1 X40 E10 F700
G92 E0

M221 S95 ; set flow
G21 ; set units to millimeters
G90 ; use absolute coordinates
M83 ; use relative distances for extrusion
M900 K0.2 ; Filament gcode LA 1.5
; ; Filament gcode LA 1.0
M107
;LAYER_CHANGE
;Z:0.2
;HEIGHT:0.2
;BEFORE_LAYER_CHANGE
G92 E0.0
;0.2


G1 E-3.2 F4200
G1 Z.2 F720
;AFTER_LAYER_CHANGE
;0.2
G1 Z.4
G1 X45.88 Y68.767 F9000
G1 Z.2 F720
G1 E3.2 F2400
M204 P800
;TYPE:Skirt/Brim
;WIDTH:0.42
G1 F1200
G1 X46.82 Y68.573 E.03008
G1 X133.18 Y68.573 E2.70776
G1 X134.487 Y68.965 E.04278
G1 X135.363 Y70.01 E.04278
G1 X135.557 Y70.95 E.03008
G1 X135.557 Y109.05 E1.1946
G1 X135.165 Y110.357 E.04278
G1 X134.12 Y111.233 E.04278
G1 X133.18 Y111.427 E.03008
G1 X46.82 Y111.427 E2.70776
G1 X45.513 Y111.035 E.04278
G1 X44.637 Y109.99 E.04278
G1 X44.443 Y109.05 E.03008
G1 X44.443 Y70.95 E1.1946
G1 X44.835 Y69.643 E.04278
M73 P1 R47
G1 X45.834 Y68.805 E.0409
M204 P1000
; printing object circlemge1.stl id:0 copy 0
G1 E-2.24 F4200
;WIPE_START
G1 F7200
G1 X46.82 Y68.573 E-.56121
G1 X47.453 Y68.573 E-.35079
;WIPE_END
G1 E-.048 F4200
G1 Z.4 F720
G1 X132.393 Y108.263 F9000
G1 Z.2 F720
G1 E3.2 F2400
M204 P800
;TYPE:Perimeter
;WIDTH:0.419999
G1 F1200
G1 X47.607 Y108.263 E2.6584
G1 X47.607 Y71.737 E1.14524
G1 X132.393 Y71.737 E2.6584
G1 X132.393 Y108.203 E1.14336
M204 P1000
G1 X132.77 Y108.64 F9000
M204 P800
;TYPE:External perimeter
G1 F1200
G1 X47.23 Y108.64 E2.68204
G1 X47.23 Y71.36 E1.16889
G1 X132.77 Y71.36 E2.68204
G1 X132.77 Y108.58 E1.16701
M204 P1000
G1 X132.374 Y108.585 F9000
G1 E-2.24 F4200
;WIPE_START
G1 F7200
G1 X131.124 Y108.581 E-.912
;WIPE_END
G1 E-.048 F4200
G1 Z.4 F720
G1 X130.115 Y89.466 F9000
G1 Z.2 F720
G1 E3.2 F2400
M204 P800
;TYPE:Perimeter
G1 F1200
G1 X130.212 Y90 E.01703
G1 X130.13 Y90.566 E.01795
G1 X129.855 Y91.166 E.02067
G1 X129.409 Y91.651 E.02067
G1 X128.835 Y91.975 E.02067
G1 X128.188 Y92.105 E.02067
G1 X127.534 Y92.03 E.02067
G1 X126.934 Y91.755 E.02067
G1 X126.449 Y91.309 E.02067
G1 X126.125 Y90.735 E.02067
G1 X125.995 Y90.088 E.02067
G1 X126.07 Y89.434 E.02067
G1 X126.345 Y88.834 E.02067
G1 X126.791 Y88.349 E.02067
G1 X127.365 Y88.025 E.02067
G1 X128.012 Y87.895 E.02067
G1 X128.666 Y87.97 E.02067
G1 X129.266 Y88.245 E.02067
G1 X129.751 Y88.691 E.02067
G1 X130.075 Y89.265 E.02067
G1 X130.103 Y89.407 E.00453
M204 P1000
G1 X129.827 Y90.053 F9000
M204 P800
;TYPE:External perimeter
G1 F1200
G1 X129.757 Y90.507 E.01441
G1 X129.519 Y90.995 E.017
G1 X129.142 Y91.385 E.017
G1 X128.664 Y91.639 E.017
G1 X128.129 Y91.733 E.017
G1 X127.593 Y91.657 E.017
G1 X127.105 Y91.419 E.017
G1 X126.715 Y91.042 E.017
G1 X126.461 Y90.564 E.017
G1 X126.367 Y90.029 E.017
G1 X126.443 Y89.493 E.017
G1 X126.681 Y89.005 E.017
G1 X127.058 Y88.615 E.017
G1 X127.536 Y88.361 E.017
G1 X128.071 Y88.267 E.017
G1 X128.607 Y88.343 E.017
G1 X129.095 Y88.581 E.017
G1 X129.485 Y88.958 E.017
G1 X129.739 Y89.436 E.017
G1 X129.835 Y89.994 E.01773
M204 P1000
G1 X130.173 Y90.253 F9000
G1 E-2.24 F4200
;WIPE_START
G1 F7200
G1 X129.757 Y90.507 E-.28785
G1 X129.519 Y90.995 E-.30048
G1 X129.142 Y91.385 E-.30049
G1 X129.105 Y91.404 E-.02318
;WIPE_END
G1 E-.048 F4200
G1 Z.4 F720
G1 X103.852 Y88.63 F9000
G1 Z.2 F720
G1 E3.2 F2400
M204 P800
;TYPE:Perimeter
G1 F1200
G1 X103.925 Y88.599 E.00249
G1 X104.376 Y88.555 E.0142
G1 X104.818 Y88.653 E.0142
G1 X105.208 Y88.883 E.0142
G1 X105.508 Y89.222 E.0142
G1 X105.689 Y89.638 E.0142
G1 X105.732 Y90.089 E.0142
G1 X105.667 Y90.454 E.01164
G1 X105.433 Y90.89 E.01552
G1 X105.065 Y91.221 E.01551
G1 X104.65 Y91.402 E.0142
G1 X104.199 Y91.445 E.0142
G1 X103.757 Y91.347 E.0142
G1 X103.367 Y91.117 E.0142
G1 X103.067 Y90.778 E.0142
G1 X102.886 Y90.362 E.0142
G1 X102.843 Y89.912 E.0142
G1 X102.941 Y89.469 E.0142
G1 X103.171 Y89.079 E.0142
G1 X103.51 Y88.779 E.0142
G1 X103.797 Y88.654 E.00983
M204 P1000
G1 X104.043 Y88.963 F9000
M204 P800
;TYPE:External perimeter
G1 F1200
G1 X104.317 Y88.928 E.00868
G1 X104.647 Y88.989 E.01052
G1 X104.942 Y89.15 E.01052
G1 X105.172 Y89.394 E.01052
G1 X105.317 Y89.697 E.01052
G1 X105.36 Y90.03 E.01053
G1 X105.309 Y90.334 E.00967
G1 X105.138 Y90.654 E.01139
G1 X104.894 Y90.885 E.01053
G1 X104.591 Y91.029 E.01052
G1 X104.258 Y91.072 E.01052
G1 X103.928 Y91.011 E.01052
G1 X103.633 Y90.85 E.01052
G1 X103.403 Y90.607 E.01052
G1 X103.258 Y90.303 E.01052
G1 X103.215 Y89.971 E.01052
G1 X103.298 Y89.598 E.01197
G1 X103.437 Y89.346 E.00903
G1 X103.681 Y89.115 E.01052
G1 X103.983 Y88.971 E.01049
M204 P1000
G1 X104.111 Y88.695 F9000
G1 E-2.24 F4200
;WIPE_START
G1 F7200
M73 P2 R47
G1 X104.317 Y88.928 E-.18659
G1 X104.647 Y88.989 E-.18599
G1 X104.942 Y89.15 E-.18601
G1 X105.172 Y89.394 E-.18601
G1 X105.302 Y89.666 E-.1674
;WIPE_END
G1 E-.048 F4200
G1 Z.4 F720
G1 X104.723 Y102.482 F9000
G1 Z.2 F720
G1 E3.2 F2400
M204 P800
;TYPE:Perimeter
G1 F1200
G1 X104.65 Y102.514 E.00249
G1 X104.199 Y102.557 E.0142
G1 X103.757 Y102.459 E.0142
G1 X103.367 Y102.229 E.0142
G1 X103.067 Y101.89 E.0142
G1 X102.886 Y101.475 E.0142
G1 X102.843 Y101.024 E.0142
G1 X102.941 Y100.582 E.0142
G1 X103.171 Y100.192 E.0142
G1 X103.51 Y99.892 E.0142
G1 X103.925 Y99.711 E.0142
G1 X104.376 Y99.668 E.0142
G1 X104.818 Y99.766 E.0142
G1 X105.208 Y99.996 E.0142
G1 X105.508 Y100.335 E.0142
G1 X105.689 Y100.75 E.0142
G1 X105.739 Y101.136 E.01219
G1 X105.634 Y101.643 E.01624
G1 X105.404 Y102.033 E.0142
G1 X105.065 Y102.333 E.0142
G1 X104.778 Y102.458 E.00983
M204 P1000
G1 X104.561 Y102.145 F9000
M204 P800
;TYPE:External perimeter
G1 F1200
G1 X104.258 Y102.185 E.00957
G1 X103.928 Y102.123 E.01052
G1 X103.633 Y101.963 E.01052
G1 X103.403 Y101.719 E.01052
G1 X103.258 Y101.416 E.01052
G1 X103.227 Y101.009 E.01281
G1 X103.277 Y100.753 E.00816
G1 X103.437 Y100.458 E.01052
G1 X103.681 Y100.228 E.01052
G1 X103.984 Y100.083 E.01052
G1 X104.317 Y100.04 E.01052
G1 X104.647 Y100.102 E.01052
G1 X104.942 Y100.262 E.01052
G1 X105.172 Y100.506 E.01052
G1 X105.317 Y100.809 E.01052
G1 X105.362 Y101.12 E.00986
G1 X105.298 Y101.472 E.01121
G1 X105.138 Y101.767 E.01052
G1 X104.894 Y101.997 E.01052
G1 X104.618 Y102.129 E.0096
M204 P1000
G1 X104.487 Y102.442 F9000
G1 E-2.24 F4200
;WIPE_START
G1 F7200
G1 X104.258 Y102.185 E-.20167
G1 X103.928 Y102.123 E-.18601
G1 X103.633 Y101.963 E-.18601
G1 X103.403 Y101.719 E-.18601
G1 X103.285 Y101.471 E-.1523
;WIPE_END
G1 E-.048 F4200
G1 Z.4 F720
G1 X89.329 Y79.712 F9000
G1 Z.2 F720
G1 E3.2 F2400
M204 P800
;TYPE:Perimeter
G1 F1200
G1 X91.862 Y79.86 E.07956
G1 X92.001 Y79.887 E.00445
G1 X94.325 Y80.642 E.07662
G1 X96.517 Y82.011 E.08103
G1 X98.299 Y83.883 E.08103
G1 X98.382 Y83.998 E.00445
G1 X99.559 Y86.139 E.07662
G1 X99.76 Y86.848 E.02312
G1 X100.218 Y88.631 E.05772
G1 X100.235 Y91.228 E.08141
G1 X100.118 Y91.756 E.01696
G1 X99.612 Y93.729 E.06388
G1 X99.559 Y93.861 E.00445
G1 X98.382 Y96.002 E.07662
G1 X96.626 Y97.898 E.08103
G1 X96.189 Y98.197 E.0166
G1 X94.454 Y99.298 E.06444
G1 X94.325 Y99.358 E.00445
G1 X92.001 Y100.113 E.07662
G1 X91.862 Y100.14 E.00445
G1 X89.423 Y100.293 E.07662
G1 X89.282 Y100.285 E.00445
G1 X86.882 Y99.827 E.07662
G1 X86.747 Y99.783 E.00445
G1 X84.536 Y98.742 E.07662
G1 X82.533 Y97.109 E.08103
G1 X81 Y95.029 E.08103
G1 X80.032 Y92.633 E.08103
G1 X79.932 Y91.983 E.0206
G1 X79.691 Y90.071 E.06043
G1 X79.997 Y87.505 E.08103
G1 X80.932 Y85.096 E.08103
G1 X82.436 Y82.994 E.08103
G1 X82.927 Y82.565 E.02043
G1 X84.421 Y81.33 E.06079
G1 X84.536 Y81.258 E.00426
G1 X86.747 Y80.217 E.07662
G1 X86.882 Y80.173 E.00445
G1 X89.269 Y79.718 E.07622
M204 P1000
G1 X89.339 Y80.088 F9000
M204 P800
;TYPE:External perimeter
G1 F1200
G1 X91.885 Y80.245 E.07998
G1 X94.209 Y81 E.07662
G1 X96.315 Y82.33 E.07809
G1 X98.052 Y84.179 E.07956
G1 X99.229 Y86.321 E.07662
G1 X99.852 Y88.725 E.07789
G1 X99.858 Y91.228 E.07847
G1 X99.684 Y91.931 E.0227
G1 X99.229 Y93.679 E.05666
G1 X98.052 Y95.821 E.07662
G1 X96.349 Y97.643 E.07819
G1 X94.252 Y98.98 E.07798
G1 X91.838 Y99.764 E.07956
G1 X89.353 Y99.914 E.07809
G1 X86.952 Y99.456 E.07662
G1 X84.696 Y98.401 E.07809
G1 X82.774 Y96.818 E.07809
G1 X81.305 Y94.807 E.07809
G1 X80.383 Y92.494 E.07809
G1 X80.306 Y91.936 E.01765
G1 X80.065 Y90.024 E.06043
G1 X80.371 Y87.552 E.07809
G1 X81.282 Y85.234 E.07809
G1 X82.741 Y83.216 E.07809
G1 X84.696 Y81.599 E.07956
G1 X86.907 Y80.558 E.07662
G1 X89.28 Y80.1 E.07577
M204 P1000
G1 X89.516 Y79.73 F9000
G1 E-2.24 F4200
;WIPE_START
G1 F7200
G1 X90.923 Y80.191 E-.912
;WIPE_END
G1 E-.048 F4200
G1 Z.4 F720
G1 X76.568 Y99.957 F9000
G1 Z.2 F720
G1 E3.2 F2400
M204 P800
;TYPE:Perimeter
G1 F1200
G1 X76.633 Y99.996 E.00239
G1 X76.933 Y100.335 E.0142
G1 X77.114 Y100.75 E.0142
G1 X77.157 Y101.201 E.0142
G1 X77.059 Y101.643 E.0142
G1 X76.829 Y102.033 E.0142
G1 X76.49 Y102.333 E.0142
G1 X76.075 Y102.514 E.0142
G1 X75.624 Y102.557 E.0142
G1 X75.182 Y102.459 E.0142
G1 X74.792 Y102.229 E.0142
G1 X74.492 Y101.89 E.0142
G1 X74.311 Y101.475 E.0142
G1 X74.268 Y101.024 E.0142
G1 X74.366 Y100.582 E.0142
G1 X74.596 Y100.192 E.0142
G1 X74.935 Y99.892 E.0142
G1 X75.35 Y99.711 E.0142
G1 X75.801 Y99.668 E.0142
G1 X76.243 Y99.766 E.0142
G1 X76.516 Y99.926 E.00992
M204 P1000
G1 X76.388 Y100.286 F9000
M204 P800
;TYPE:External perimeter
G1 F1200
G1 X76.614 Y100.539 E.01065
G1 X76.742 Y100.809 E.00937
G1 X76.785 Y101.142 E.01052
G1 X76.723 Y101.472 E.01052
G1 X76.563 Y101.767 E.01052
G1 X76.319 Y101.997 E.01052
G1 X76.016 Y102.142 E.01052
G1 X75.683 Y102.185 E.01052
G1 X75.353 Y102.123 E.01052
G1 X75.058 Y101.963 E.01052
G1 X74.828 Y101.719 E.01052
G1 X74.683 Y101.416 E.01052
G1 X74.64 Y101.083 E.01052
G1 X74.702 Y100.753 E.01053
G1 X74.862 Y100.458 E.01052
G1 X75.106 Y100.228 E.01052
G1 X75.409 Y100.083 E.01052
G1 X75.742 Y100.04 E.01052
G1 X76.072 Y100.102 E.01052
G1 X76.342 Y100.249 E.00963
M204 P1000
G1 X76.705 Y100.164 F9000
G1 E-2.24 F4200
;WIPE_START
G1 F7200
G1 X76.614 Y100.539 E-.22057
G1 X76.742 Y100.809 E-.16569
G1 X76.785 Y101.142 E-.18602
G1 X76.723 Y101.472 E-.18601
G1 X76.591 Y101.716 E-.15371
;WIPE_END
G1 E-.048 F4200
G1 Z.4 F720
G1 X77.077 Y90.453 F9000
G1 Z.2 F720
G1 E3.2 F2400
M204 P800
;TYPE:Perimeter
G1 F1200
G1 X77.059 Y90.531 E.00249
G1 X76.829 Y90.921 E.0142
G1 X76.49 Y91.221 E.0142
G1 X76.075 Y91.402 E.0142
G1 X75.624 Y91.445 E.0142
G1 X75.182 Y91.347 E.0142
G1 X74.792 Y91.117 E.0142
G1 X74.492 Y90.778 E.0142
G1 X74.362 Y90.524 E.00892
G1 X74.262 Y90.045 E.01536
G1 X74.333 Y89.546 E.01579
G1 X74.567 Y89.11 E.01552
G1 X74.935 Y88.779 E.01551
G1 X75.35 Y88.598 E.0142
G1 X75.801 Y88.555 E.0142
G1 X76.243 Y88.653 E.0142
G1 X76.633 Y88.883 E.0142
G1 X76.933 Y89.222 E.0142
G1 X77.114 Y89.638 E.0142
G1 X77.157 Y90.088 E.0142
G1 X77.09 Y90.395 E.00983
M204 P1000
G1 X76.703 Y90.396 F9000
M204 P800
;TYPE:External perimeter
G1 F1200
G1 X76.563 Y90.654 E.00921
G1 X76.319 Y90.885 E.01052
G1 X75.96 Y91.038 E.01225
G1 X75.683 Y91.072 E.00874
G1 X75.353 Y91.011 E.01052
G1 X75.058 Y90.85 E.01052
G1 X74.828 Y90.606 E.01053
G1 X74.701 Y90.357 E.00877
G1 X74.64 Y89.971 E.01228
G1 X74.702 Y89.64 E.01053
G1 X74.862 Y89.346 E.01052
G1 X75.106 Y89.115 E.01053
G1 X75.409 Y88.971 E.01052
G1 X75.742 Y88.928 E.01053
G1 X76.072 Y88.989 E.01052
G1 X76.367 Y89.15 E.01052
G1 X76.597 Y89.393 E.01052
G1 X76.742 Y89.697 E.01052
G1 X76.785 Y90.029 E.01052
G1 X76.727 Y90.342 E.00996
M204 P1000
G1 X76.892 Y90.622 F9000
G1 E-2.24 F4200
;WIPE_START
G1 F7200
G1 X76.563 Y90.654 E-.1955
G1 X76.319 Y90.885 E-.18601
G1 X75.96 Y91.038 E-.21648
G1 X75.683 Y91.072 E-.15446
G1 X75.4 Y91.02 E-.15954
;WIPE_END
G1 E-.048 F4200
G1 Z.4 F720
G1 X76.546 Y80.059 F9000
G1 Z.2 F720
G1 E3.2 F2400
M204 P800
;TYPE:Perimeter
G1 F1200
G1 X76.49 Y80.108 E.00235
G1 X76.075 Y80.289 E.0142
G1 X75.624 Y80.332 E.0142
G1 X75.182 Y80.234 E.0142
G1 X74.792 Y80.004 E.0142
G1 X74.492 Y79.665 E.0142
G1 X74.311 Y79.25 E.0142
G1 X74.268 Y78.799 E.0142
G1 X74.366 Y78.357 E.0142
G1 X74.596 Y77.967 E.0142
G1 X74.935 Y77.667 E.0142
G1 X75.35 Y77.486 E.0142
G1 X75.801 Y77.443 E.0142
G1 X76.243 Y77.541 E.0142
G1 X76.633 Y77.771 E.0142
G1 X76.933 Y78.11 E.0142
G1 X77.093 Y78.438 E.01143
G1 X77.164 Y78.884 E.01418
G1 X77.082 Y79.369 E.01541
G1 X76.829 Y79.808 E.01589
G1 X76.591 Y80.019 E.00997
M204 P1000
G1 X76.293 Y79.783 F9000
M204 P800
;TYPE:External perimeter
G1 F1200
G1 X75.96 Y79.925 E.01137
G1 X75.683 Y79.96 E.00874
G1 X75.353 Y79.898 E.01053
G1 X75.058 Y79.738 E.01052
G1 X74.828 Y79.494 E.01053
G1 X74.683 Y79.191 E.01052
G1 X74.64 Y78.858 E.01052
G1 X74.702 Y78.528 E.01052
G1 X74.862 Y78.233 E.01052
G1 X75.106 Y78.003 E.01052
G1 X75.409 Y77.858 E.01052
G1 X75.742 Y77.815 E.01052
G1 X76.072 Y77.877 E.01052
G1 X76.367 Y78.037 E.01052
G1 X76.597 Y78.281 E.01052
G1 X76.735 Y78.555 E.00961
G1 X76.785 Y78.917 E.01146
G1 X76.723 Y79.247 E.01052
G1 X76.563 Y79.542 E.01052
G1 X76.342 Y79.751 E.00953
M204 P1000
G1 X76.309 Y80.146 F9000
G1 E-2.24 F4200
;WIPE_START
G1 F7200
G1 X75.96 Y79.925 E-.23313
G1 X75.683 Y79.96 E-.15444
G1 X75.353 Y79.898 E-.18604
G1 X75.058 Y79.738 E-.18599
G1 X74.869 Y79.538 E-.15241
;WIPE_END
G1 E-.048 F4200
G1 Z.4 F720
G1 X52.555 Y91.991 F9000
G1 Z.2 F720
G1 E3.2 F2400
M204 P800
;TYPE:Perimeter
G1 F1200
G1 X51.988 Y92.105 E.01812
G1 X51.334 Y92.03 E.02067
G1 X50.734 Y91.755 E.02067
G1 X50.249 Y91.309 E.02067
G1 X49.925 Y90.735 E.02067
G1 X49.795 Y90.088 E.02067
G1 X49.87 Y89.434 E.02067
G1 X50.145 Y88.834 E.02067
G1 X50.591 Y88.349 E.02067
G1 X51.165 Y88.025 E.02067
G1 X51.812 Y87.895 E.02067
G1 X52.466 Y87.97 E.02067
G1 X53.066 Y88.245 E.02067
G1 X53.551 Y88.691 E.02067
G1 X53.875 Y89.265 E.02067
G1 X54.012 Y90 E.02344
G1 X53.93 Y90.566 E.01795
G1 X53.655 Y91.166 E.02067
G1 X53.209 Y91.651 E.02067
G1 X52.614 Y91.979 E.02131
M204 P1000
G1 X52.372 Y91.655 F9000
M204 P800
;TYPE:External perimeter
G1 F1200
G1 X51.929 Y91.733 E.01409
G1 X51.393 Y91.657 E.017
G1 X50.905 Y91.419 E.017
G1 X50.515 Y91.042 E.017
G1 X50.261 Y90.564 E.017
G1 X50.167 Y90.029 E.017
G1 X50.243 Y89.493 E.017
G1 X50.481 Y89.005 E.017
G1 X50.858 Y88.615 E.017
G1 X51.336 Y88.361 E.017
G1 X51.871 Y88.267 E.017
G1 X52.407 Y88.343 E.017
G1 X52.895 Y88.581 E.017
G1 X53.285 Y88.958 E.017
G1 X53.539 Y89.436 E.017
G1 X53.635 Y90 E.01792
G1 X53.557 Y90.507 E.0161
G1 X53.319 Y90.995 E.017
G1 X52.942 Y91.385 E.017
G1 X52.431 Y91.645 E.01798
M204 P1000
G1 X52.291 Y92.047 F9000
G1 E-2.24 F4200
;WIPE_START
G1 F7200
G1 X51.929 Y91.733 E-.28233
G1 X51.393 Y91.657 E-.30049
G1 X50.905 Y91.419 E-.30048
G1 X50.868 Y91.383 E-.0287
;WIPE_END
G1 E-.048 F4200
G1 Z.4 F720
G1 X104.278 Y80.325 F9000
G1 Z.2 F720
G1 E3.2 F2400
M204 P800
;TYPE:Perimeter
G1 F1200
G1 X104.199 Y80.332 E.00249
G1 X103.757 Y80.234 E.0142
G1 X103.367 Y80.004 E.0142
G1 X103.067 Y79.665 E.0142
G1 X102.886 Y79.25 E.0142
G1 X102.843 Y78.799 E.0142
G1 X102.941 Y78.357 E.0142
G1 X103.171 Y77.967 E.0142
G1 X103.51 Y77.667 E.0142
G1 X103.925 Y77.486 E.0142
G1 X104.376 Y77.443 E.0142
G1 X104.818 Y77.541 E.0142
G1 X105.208 Y77.771 E.0142
G1 X105.508 Y78.11 E.0142
